X:530
T:Danish or Copenhagen Waltz
A:Wyresdale, Lancashire
B:E and J Winder, 1835-41
L:1/16
M:3/8
N:in MR
O:England
Z:Richard Robinson 
%%TUNEURL: http://www.leeds.ac.uk/music/Info/RRTuneBk/gettune/00000623.html
%%ID:00000623
K:C
e<g | \
f<a e<g d<f | c<e G2 c<e | c<e G2 B<d | B<d G2 e<g |\
f<a e<g d<f | c<e G2 c<e | d<f G2 B<d | c4 ::
c<e |\
d<f G2 B<d  | c<e G2 c<e | d<f G2 B<d | c<e G2 e<g |\
f<a e<g d<f | c<e G2 c<e | d<f G2 B<d | c4 ::
g4 |\
(a2g2)e2 | c4 g2    | (a2g2)e2  | d4 g2 |\
(a2g2)e2 | (cBcege) | (d^cdefd) | c4   :|
